dist/img/globe.svg

<svg width="144" height="114" viewBox="0 0 144 114" fill="none" xmlns="http://www.w3.org/2000/svg">
<path d="M72 112.651C111.022 112.651 142.655 87.7354 142.655 57C142.655 26.2646 111.022 1.34857 72 1.34857C32.9782 1.34857 1.34479 26.2646 1.34479 57C1.34479 87.7354 32.9782 112.651 72 112.651Z" fill="#EFEEEC"/>
<path d="M72 114C32.2929 114 0 88.4309 0 57C0 25.5691 32.2929 0 72 0C111.707 0 144 25.5691 144 57C144 88.4309 111.698 114 72 114ZM72 2.69716C33.7811 2.69716 2.68958 27.0525 2.68958 57C2.68958 86.9475 33.7811 111.303 72 111.303C110.219 111.303 141.31 86.9385 141.31 57C141.31 27.0615 110.21 2.69716 72 2.69716Z" fill="black"/>
<path d="M72 112.651C93.7662 112.651 111.411 87.7354 111.411 57C111.411 26.2646 93.7662 1.34857 72 1.34857C50.2337 1.34857 32.5887 26.2646 32.5887 57C32.5887 87.7354 50.2337 112.651 72 112.651Z" fill="#EFEEEC"/>
<path d="M72 114C49.5241 114 31.2439 88.4309 31.2439 57C31.2439 25.5691 49.5241 0 72 0C94.4759 0 112.756 25.5691 112.756 57C112.756 88.4309 94.4669 114 72 114ZM72 2.69716C51.0034 2.69716 33.9335 27.0525 33.9335 57C33.9335 86.9475 51.0123 111.303 72 111.303C92.9877 111.303 110.066 86.9385 110.066 57C110.066 27.0615 92.9877 2.69716 72 2.69716Z" fill="black"/>
<path d="M124.115 95.3356C110.882 89.5098 91.885 86.1743 71.991 86.1743C52.0971 86.1743 33.0997 89.5098 19.867 95.3356L18.7822 92.8632C32.3377 86.8935 51.7296 83.4771 71.9821 83.4771C92.2346 83.4771 111.626 86.9025 125.182 92.8632L124.115 95.3356Z" fill="black"/>
<path d="M72 30.5229C51.7475 30.5229 32.3556 27.0975 18.8001 21.1367L19.8849 18.6644C33.1177 24.4902 52.115 27.8257 72.009 27.8257C91.9029 27.8257 110.9 24.4902 124.133 18.6644L125.218 21.1367C111.635 27.0975 92.2435 30.5229 72 30.5229Z" fill="black"/>
<path d="M142.646 55.6514H1.34479V58.3486H142.646V55.6514Z" fill="black"/>
<path d="M73.3448 1.34857H70.6552V112.651H73.3448V1.34857Z" fill="black"/>
</svg>

<svg width="144" height="114" fill="none" xmlns="http://www.w3.org/2000/svg"><path d="M72 112.651c39.022 0 70.655-24.916 70.655-55.651 0-30.735-31.633-55.651-70.655-55.651C32.978 1.349 1.345 26.265 1.345 57c0 30.735 31.633 55.651 70.655 55.651z" fill="#EFEEEC"/><path d="M72 114C32.293 114 0 88.43 0 57S32.293 0 72 0s72 25.57 72 57-32.302 57-72 57zM72 2.697C33.781 2.697 2.69 27.052 2.69 57c0 29.948 31.091 54.303 69.31 54.303S141.31 86.939 141.31 57c0-29.939-31.1-54.303-69.31-54.303z" fill="#000"/><path d="M72 112.651c21.766 0 39.411-24.916 39.411-55.651 0-30.735-17.645-55.651-39.411-55.651-21.766 0-39.411 24.916-39.411 55.651 0 30.735 17.645 55.651 39.411 55.651z" fill="#EFEEEC"/><path d="M72 114c-22.476 0-40.756-25.57-40.756-57S49.524 0 72 0s40.756 25.57 40.756 57S94.466 114 72 114zM72 2.697C51.003 2.697 33.934 27.052 33.934 57c0 29.948 17.078 54.303 38.066 54.303 20.988 0 38.066-24.364 38.066-54.303 0-29.939-17.078-54.303-38.066-54.303z" fill="#000"/><path d="M124.115 95.336c-13.233-5.826-32.23-9.162-52.124-9.162-19.894 0-38.891 3.336-52.124 9.162l-1.085-2.473c13.556-5.97 32.948-9.386 53.2-9.386 20.253 0 39.644 3.425 53.2 9.386l-1.067 2.473zM72 30.523c-20.252 0-39.644-3.425-53.2-9.386l1.085-2.473c13.233 5.826 32.23 9.162 52.124 9.162 19.894 0 38.891-3.336 52.124-9.162l1.085 2.473c-13.583 5.96-32.975 9.386-53.218 9.386zm70.646 25.128H1.345v2.698h141.301V55.65z" fill="#000"/><path d="M73.345 1.349h-2.69V112.65h2.69V1.349z" fill="#000"/></svg>
